X: 749
P: Longways for as many as will
M: C|
L: 1/8
K: C
|:\
e4 d4 | c2 e4 f2 | g2fe d2c2 | B2 d4 e2 |\
c4 B4 | A2 d4 cB | A2G2 G3^F | G8 :|\
d4 c4 | B2 e4 dc |
e4 d4 | c2 c'4 g2 | a2(gf) e3d | d6 f2 |\
e3f g2c2 | f2 a4 d2 | e4 c2BA | B2 d4 g2 |\
e2(dc) d2B2 | c4 |]

